svg/emoji_u1f3e5.svg

<?xml version="1.0" encoding="UTF-8" standalone="no"?>
<!DOCTYPE svg PUBLIC "-//W3C//DTD SVG 1.1//EN" "http://www.w3.org/Graphics/SVG/1.1/DTD/svg11.dtd">
<svg width="100%" height="100%" viewBox="0 0 128 128" version="1.1" xmlns="http://www.w3.org/2000/svg" xmlns:xlink="http://www.w3.org/1999/xlink" xml:space="preserve" xmlns:serif="http://www.serif.com/" style="fill-rule:evenodd;clip-rule:evenodd;stroke-linejoin:round;stroke-miterlimit:2;">
    <rect x="39.46" y="102.22" width="47.97" height="25.78" style="fill:rgb(0,108,162);fill-rule:nonzero;"/>
    <path d="M80.82,44.76L80.82,9.68L47.36,9.68L47.36,44.76L10.12,44.76L10.12,105.2L115.9,105.2L115.9,44.76L80.82,44.76Z" style="fill:rgb(0,108,162);fill-rule:nonzero;"/>
    <path d="M113.81,36.9L95.85,36.9C93.82,36.9 92.01,36.64 90.86,35.7C89.74,34.78 89.42,32.99 89.39,31.58L89.39,13.18C89.39,7.73 84.93,3.28 79.49,3.28L48.5,3.28C43.05,3.28 38.59,7.73 38.59,13.18L38.59,31.58C38.57,32.99 38.24,34.78 37.13,35.7C35.98,36.65 34.17,36.9 32.14,36.9L14.19,36.9C8.73,36.9 4.28,41.35 4.28,46.81L4.28,128L47.4,128L47.4,115.02C47.4,111.98 49.87,109.49 52.92,109.49L75.07,109.49C78.11,109.49 80.6,111.98 80.6,115.02L80.6,128L123.73,128L123.73,46.81C123.72,41.35 119.26,36.9 113.81,36.9ZM28.88,95.12L16.56,95.12L16.56,79.42L28.88,79.42L28.88,95.12ZM28.88,70.17L16.56,70.17L16.56,54.47L28.88,54.47L28.88,70.17ZM49.52,95.12L37.2,95.12L37.2,79.42L49.52,79.42L49.52,95.12ZM49.52,70.17L37.2,70.17L37.2,54.47L49.52,54.47L49.52,70.17ZM70.15,95.12L57.82,95.12L57.82,79.42L70.15,79.42L70.15,95.12ZM70.15,70.17L57.82,70.17L57.82,54.47L70.15,54.47L70.15,70.17ZM90.78,95.12L78.47,95.12L78.47,79.42L90.78,79.42L90.78,95.12ZM90.78,70.17L78.47,70.17L78.47,54.47L90.78,54.47L90.78,70.17ZM111.42,95.12L99.1,95.12L99.1,79.42L111.42,79.42L111.42,95.12ZM111.42,70.17L99.1,70.17L99.1,54.47L111.42,54.47L111.42,70.17Z" style="fill:rgb(64,192,231);fill-rule:nonzero;"/>
    <path d="M78.47,13.542C78.47,12.909 78.218,12.302 77.771,11.854C77.323,11.407 76.716,11.155 76.083,11.155L51.887,11.155C51.254,11.155 50.647,11.407 50.199,11.854C49.752,12.302 49.5,12.909 49.5,13.542L49.5,37.738C49.5,38.371 49.752,38.978 50.199,39.426C50.647,39.873 51.254,40.125 51.887,40.125L76.083,40.125C76.716,40.125 77.323,39.873 77.771,39.426C78.218,38.978 78.47,38.371 78.47,37.738L78.47,13.542Z" style="fill:rgb(237,108,48);"/>
    <path d="M74.99,27.2C74.99,28.32 74.08,29.24 72.96,29.24L69.64,29.24C68.52,29.24 67.6,30.16 67.6,31.28L67.6,34.6C67.6,35.72 66.68,36.64 65.56,36.64L62.44,36.64C61.32,36.64 60.4,35.72 60.4,34.6L60.4,31.28C60.4,30.16 59.48,29.24 58.36,29.24L55.04,29.24C53.92,29.24 53,28.32 53,27.2L53,24.08C53,22.96 53.92,22.04 55.04,22.04L58.36,22.04C59.48,22.04 60.4,21.12 60.4,20L60.4,16.68C60.4,15.56 61.32,14.64 62.44,14.64L65.56,14.64C66.68,14.64 67.6,15.56 67.6,16.68L67.6,20C67.6,21.12 68.52,22.04 69.64,22.04L72.96,22.04C74.08,22.04 74.99,22.96 74.99,24.08L74.99,27.2Z" style="fill:white;fill-rule:nonzero;"/>
</svg>

<svg width="128" height="128" xmlns="http://www.w3.org/2000/svg"><path fill="#006ca2" d="M39.46 102.22h47.97V128H39.46z"/><path fill="#006ca2" d="M80.82 44.76V9.68H47.36v35.08H10.12v60.44H115.9V44.76z"/><path d="M113.81 36.9H95.85c-2.03 0-3.84-.26-4.99-1.2-1.12-.92-1.44-2.71-1.47-4.12v-18.4c0-5.45-4.46-9.9-9.9-9.9H48.5c-5.45 0-9.91 4.45-9.91 9.9v18.4c-.02 1.41-.35 3.2-1.46 4.12-1.15.95-2.96 1.2-4.99 1.2H14.19c-5.46 0-9.91 4.45-9.91 9.91V128H47.4v-12.98c0-3.04 2.47-5.53 5.52-5.53h22.15c3.04 0 5.53 2.49 5.53 5.53V128h43.13V46.81c-.01-5.46-4.47-9.91-9.92-9.91zM28.88 95.12H16.56v-15.7h12.32v15.7zm0-24.95H16.56v-15.7h12.32v15.7zm20.64 24.95H37.2v-15.7h12.32v15.7zm0-24.95H37.2v-15.7h12.32v15.7zm20.63 24.95H57.82v-15.7h12.33v15.7zm0-24.95H57.82v-15.7h12.33v15.7zm20.63 24.95H78.47v-15.7h12.31v15.7zm0-24.95H78.47v-15.7h12.31v15.7zm20.64 24.95H99.1v-15.7h12.32v15.7zm0-24.95H99.1v-15.7h12.32v15.7z" fill="#40c0e7"/><path d="M74.99 27.2c0 1.12-.91 2.04-2.03 2.04h-3.32c-1.12 0-2.04.92-2.04 2.04v3.32c0 1.12-.92 2.04-2.04 2.04h-3.12c-1.12 0-2.04-.92-2.04-2.04v-3.32c0-1.12-.92-2.04-2.04-2.04h-3.32c-1.12 0-2.04-.92-2.04-2.04v-3.12c0-1.12.92-2.04 2.04-2.04h3.32c1.12 0 2.04-.92 2.04-2.04v-3.32c0-1.12.92-2.04 2.04-2.04h3.12c1.12 0 2.04.92 2.04 2.04V20c0 1.12.92 2.04 2.04 2.04h3.32c1.12 0 2.03.92 2.03 2.04v3.12z" fill="#ed6c30"/></svg>
